docs/virtualproperty.svg

<?xml version="1.0" encoding="UTF-8" standalone="no"?>
<svg
   xmlns:osb="http://www.openswatchbook.org/uri/2009/osb"
   xmlns:dc="http://purl.org/dc/elements/1.1/"
   xmlns:cc="http://creativecommons.org/ns#"
   xmlns:rdf="http://www.w3.org/1999/02/22-rdf-syntax-ns#"
   xmlns:svg="http://www.w3.org/2000/svg"
   xmlns="http://www.w3.org/2000/svg"
   width="16.036167"
   version="1.1"
   id="svg7384"
   height="16">
  <metadata
     id="metadata90">
    <rdf:RDF>
      <cc:Work
         rdf:about="">
        <dc:format>image/svg+xml</dc:format>
        <dc:type
           rdf:resource="http://purl.org/dc/dcmitype/StillImage" />
        <dc:title>elementary Symbolic Icon Theme</dc:title>
      </cc:Work>
    </rdf:RDF>
  </metadata>
  <title
     id="title9167">elementary Symbolic Icon Theme</title>
  <defs
     id="defs7386">
    <linearGradient
       id="linearGradient4526"
       osb:paint="solid">
      <stop
         style="stop-color:#ffffff;stop-opacity:1;"
         offset="0"
         id="stop4528" />
    </linearGradient>
  </defs>
  <g
     transform="translate(-433.00039,12)"
     style="display:inline"
     label="status"
     id="layer9" />
  <g
     transform="translate(-433.00039,12)"
     style="display:inline"
     id="layer10" />
  <g
     transform="translate(-433.00039,12)"
     style="display:inline"
     id="layer13" />
  <g
     transform="translate(-433.00039,12)"
     id="layer14" />
  <g
     transform="translate(-433.00039,12)"
     style="display:inline"
     id="layer15" />
  <g
     transform="translate(-433.00039,12)"
     style="display:inline"
     id="g71291" />
  <g
     transform="translate(-701.76365,603.60207)"
     style="display:inline"
     id="layer9-2-2" />
  <g
     transform="translate(-701.76365,603.60207)"
     style="display:inline"
     id="layer10-0-6" />
  <g
     transform="translate(-701.76365,603.60207)"
     id="layer11-5" />
  <g
     transform="translate(-701.76365,603.60207)"
     id="layer14-7-9" />
  <g
     transform="translate(-701.76365,603.60207)"
     style="display:inline"
     id="layer15-5-2" />
  <g
     transform="translate(-701.76365,603.60207)"
     style="display:inline"
     id="g71291-8-4" />
  <g
     transform="translate(-701.76365,603.60207)"
     style="display:inline"
     id="g4953-5" />
  <g
     transform="translate(-701.76365,603.60207)"
     style="display:inline"
     id="layer12-4" />
  <g
     transform="translate(-288.02844,406.39676)"
     style="display:inline"
     id="layer10-2" />
  <g
     transform="translate(-288.02844,406.39676)"
     id="layer11" />
  <g
     transform="translate(-288.02844,406.39676)"
     style="display:inline"
     id="layer13-0" />
  <g
     transform="translate(-288.02844,406.39676)"
     id="layer14-3" />
  <g
     transform="translate(-288.02844,406.39676)"
     style="display:inline"
     id="layer15-1" />
  <g
     transform="translate(-288.02844,406.39676)"
     style="display:inline"
     id="g71291-5" />
  <g
     transform="translate(-288.02844,406.39676)"
     style="display:inline"
     id="g4953" />
  <g
     transform="translate(-288.02844,406.39676)"
     style="display:inline"
     id="layer12" />
  <path
     id="rect3375"
     d="M 10.130787,1 A 4.8692121,4.8692121 0 0 0 5.2615759,5.869212 4.8692121,4.8692121 0 0 0 5.7846357,8.0636861 L 1.3576471,12.488298 c -0.47686282,0.476861 -0.47686282,1.246857 0,1.72372 l 0.4303356,0.430334 c 0.4768629,0.476864 1.2468572,0.476864 1.72372,0 L 7.941069,10.210609 A 4.8692121,4.8692121 0 0 0 10.130787,10.738424 4.8692121,4.8692121 0 0 0 15,5.869212 4.8692121,4.8692121 0 0 0 14.474562,3.6794931 l -3.05039,3.0503901 c -0.476862,0.4768629 -1.246856,0.4768629 -1.7237202,0 L 9.2701167,6.2995476 c -0.4768629,-0.4768628 -0.4768629,-1.2468571 0,-1.7237201 L 12.322884,1.5230599 A 4.8692121,4.8692121 0 0 0 10.130787,1 Z"
     style="color:#fbc02d;clip-rule:nonzero;display:inline;overflow:visible;visibility:visible;opacity:1;isolation:auto;mix-blend-mode:normal;color-interpolation:sRGB;color-interpolation-filters:linearRGB;solid-color:#000000;solid-opacity:1;fill:#808080;fill-opacity:1;fill-rule:nonzero;stroke:none;stroke-width:1;stroke-linecap:butt;stroke-linejoin:miter;stroke-miterlimit:4;stroke-dasharray:none;stroke-dashoffset:0;stroke-opacity:1;marker:none;color-rendering:auto;image-rendering:auto;shape-rendering:auto;text-rendering:auto;enable-background:accumulate" />
  <path
     id="path3504-4"
     d="M 6.7519556,2.5673833 C 5.4751106,2.5667364 4.5757713,3.8212352 4.9863306,5.0302739 l 2.421875,7.1386711 c 0.25706,0.75597 0.9671445,1.264183 1.7656246,1.263672 l 1.6503908,0 c 0.797762,-3.25e-4 1.506843,-0.508382 1.763672,-1.263672 l 2.42578,-7.1386711 C 15.423968,3.8220143 14.526024,2.568074 13.250002,2.5673833 l -1.527343,0 C 10.967633,2.5676726 10.287384,3.023485 10.000002,3.7216802 9.7128912,3.0241422 9.033614,2.5684635 8.2792993,2.5673833 Z"
     style="color:#fbc02d;font-style:normal;font-variant:normal;font-weight:bold;font-stretch:normal;font-size:10px;line-height:125%;font-family:'Open Sans';-inkscape-font-specification:'Open Sans Bold';letter-spacing:0px;word-spacing:0px;clip-rule:nonzero;display:inline;overflow:visible;visibility:visible;opacity:0.07000002;isolation:auto;mix-blend-mode:normal;color-interpolation:sRGB;color-interpolation-filters:linearRGB;solid-color:#000000;solid-opacity:1;fill:#000000;fill-opacity:1;fill-rule:nonzero;stroke:none;stroke-width:1;stroke-linecap:butt;stroke-linejoin:miter;stroke-miterlimit:4;stroke-dasharray:none;stroke-dashoffset:0;stroke-opacity:1;marker:none;color-rendering:auto;image-rendering:auto;shape-rendering:auto;text-rendering:auto;enable-background:accumulate" />
  <path
     id="path3504"
     d="M 6.750977,3.5185553 C 6.126519,3.5187278 5.6869615,4.1323184 5.8876958,4.7236335 l 2.421875,7.1386715 c 0.1254329,0.36999 0.4726069,0.618982 0.863281,0.619141 l 1.6503912,0 c 0.390674,-1.59e-4 0.737848,-0.249151 0.863281,-0.619141 L 14.112305,4.7236335 C 14.313039,4.1323185 13.873482,3.5187279 13.249024,3.5185553 l -1.527344,0 C 11.324683,3.5184042 10.973201,3.7751048 10.85254,4.153321 L 9.9970708,6.8388679 9.1474618,4.1552741 c -0.11997,-0.3789892 -0.4716167,-0.6366 -0.869141,-0.6367188 z"
     style="color:#fbc02d;font-style:normal;font-variant:normal;font-weight:bold;font-stretch:normal;font-size:10px;line-height:125%;font-family:'Open Sans';-inkscape-font-specification:'Open Sans Bold';letter-spacing:0px;word-spacing:0px;clip-rule:nonzero;display:inline;overflow:visible;visibility:visible;opacity:0.2;isolation:auto;mix-blend-mode:normal;color-interpolation:sRGB;color-interpolation-filters:linearRGB;solid-color:#000000;solid-opacity:1;fill:#000000;fill-opacity:1;fill-rule:nonzero;stroke:none;stroke-width:1;stroke-linecap:butt;stroke-linejoin:miter;stroke-miterlimit:4;stroke-dasharray:none;stroke-dashoffset:0;stroke-opacity:1;marker:none;color-rendering:auto;image-rendering:auto;shape-rendering:auto;text-rendering:auto;enable-background:accumulate" />
  <path
     id="text3368"
     d="m 6.7509768,4.4306647 2.4218748,7.1386713 1.6503914,0 2.425781,-7.1386713 -1.527344,0 -1.353515,4.2480469 C 10.159831,9.4274096 10.038738,9.9514976 10.00293,10.250977 9.9834,10.120768 9.93197,9.8896486 9.8505866,9.5576176 9.7724566,9.2223316 9.6969406,8.9293626 9.6220706,8.6787116 l -1.34375,-4.2480469 z"
     style="font-style:normal;font-variant:normal;font-weight:bold;font-stretch:normal;font-size:10px;line-height:125%;font-family:'Open Sans';-inkscape-font-specification:'Open Sans Bold';letter-spacing:0px;word-spacing:0px;fill:#ffffff;fill-opacity:1;stroke:none;stroke-width:1px;stroke-linecap:butt;stroke-linejoin:miter;stroke-opacity:1" />
</svg>

<?xml version="1.0" encoding="UTF-8"?>
<svg id="svg7384" width="16.036" height="16" version="1.1" xmlns="http://www.w3.org/2000/svg" xmlns:cc="http://creativecommons.org/ns#" xmlns:dc="http://purl.org/dc/elements/1.1/" xmlns:osb="http://www.openswatchbook.org/uri/2009/osb" xmlns:rdf="http://www.w3.org/1999/02/22-rdf-syntax-ns#">
 <metadata id="metadata90">
  <rdf:RDF>
   <cc:Work rdf:about="">
    <dc:format>image/svg+xml</dc:format>
    <dc:type rdf:resource="http://purl.org/dc/dcmitype/StillImage"/>
    <dc:title>elementary Symbolic Icon Theme</dc:title>
   </cc:Work>
  </rdf:RDF>
 </metadata>
 <title id="title9167">elementary Symbolic Icon Theme</title>
 <path id="rect3375" d="m10.131 1a4.8692 4.8692 0 0 0-4.8692 4.8692 4.8692 4.8692 0 0 0 0.52306 2.1945l-4.427 4.4246c-0.47686 0.47686-0.47686 1.2469 0 1.7237l0.43034 0.43033c0.47686 0.47686 1.2469 0.47686 1.7237 0l4.4294-4.4317a4.8692 4.8692 0 0 0 2.1897 0.52782 4.8692 4.8692 0 0 0 4.8692-4.8692 4.8692 4.8692 0 0 0-0.52544-2.1897l-3.0504 3.0504c-0.47686 0.47686-1.2469 0.47686-1.7237 0l-0.43034-0.43034c-0.47686-0.47686-0.47686-1.2469 0-1.7237l3.0528-3.0528a4.8692 4.8692 0 0 0-2.1921-0.52306z" style="color-rendering:auto;color:#fbc02d;fill:#808080;image-rendering:auto;isolation:auto;mix-blend-mode:normal;shape-rendering:auto;solid-color:#000000"/>
 <path id="path3504-4" d="m6.752 2.5674c-1.2768-6.469e-4 -2.1762 1.2539-1.7656 2.4629l2.4219 7.1387c0.25706 0.75597 0.96714 1.2642 1.7656 1.2637h1.6504c0.79776-3.25e-4 1.5068-0.50838 1.7637-1.2637l2.4258-7.1387c0.4103-1.2083-0.48765-2.4622-1.7637-2.4629h-1.5273c-0.75503 2.893e-4 -1.4353 0.4561-1.7227 1.1543-0.28711-0.69754-0.96639-1.1532-1.7207-1.1543z" style="color-rendering:auto;color:#fbc02d;image-rendering:auto;isolation:auto;mix-blend-mode:normal;opacity:.07;shape-rendering:auto;solid-color:#000000"/>
 <path id="path3504" d="m6.751 3.5186c-0.62446 1.725e-4 -1.064 0.61376-0.86328 1.2051l2.4219 7.1387c0.12543 0.36999 0.47261 0.61898 0.86328 0.61914h1.6504c0.39067-1.59e-4 0.73785-0.24915 0.86328-0.61914l2.4258-7.1387c0.20073-0.59132-0.23882-1.2049-0.86328-1.2051h-1.5273c-0.397-1.511e-4 -0.74848 0.25655-0.86914 0.63477l-0.85547 2.6855-0.84961-2.6836c-0.11997-0.37899-0.47162-0.6366-0.86914-0.63672z" style="color-rendering:auto;color:#fbc02d;image-rendering:auto;isolation:auto;mix-blend-mode:normal;opacity:.2;shape-rendering:auto;solid-color:#000000"/>
 <path id="text3368" d="m6.751 4.4307 2.4219 7.1387h1.6504l2.4258-7.1387h-1.5273l-1.3535 4.248c-0.20833 0.7487-0.32943 1.2728-0.36524 1.5723-0.01953-0.13021-0.07096-0.36133-0.15234-0.69336-0.07813-0.33529-0.15365-0.62826-0.22852-0.87891l-1.3438-4.248z" style="fill:#fff"/>
</svg>
